X:06
T:Italian Dance. 2voices. Dix.06
M:C
L:1/8
Q:1/4=120
S:Anon. MS dated 1811, from Dixon collection, Holton le Moor, Lincs.
R:Italian dance
N:Repeat marks added at start
O:England;Lincolnshire;Holton le Moor
Z:vmp.R.Greig 2010 <https://www.village-music-project.org.uk>
K:E
[V:1]|:"$""qu in MS"G2|[GE][AF][AF][BG][B2G2][GE][BG]|[AF][GE][AF][FD] E/D/E/F/ EG|[GE][AF][AF][BG][B2G2][GE][BG]|[AF][GE][AF][FD]E2:|
[V:2]|:"$"z2|E,,G, E,,G, E,,G, E,,G,|D,,B,, D,,B,, E,,E, E,,E,|E,,G, E,,G, E,,G, E,,G,|B,,B, B,,B, E,E,,:|
[V:1]|:B2|[BF]z [AF][G2E2]z2B|[A2F2]z[A2F2][GE]z G|[GE][AF][AF][BG][B2G2][GE][BG]|[AF][GE][AF][FD]E2:|
[V:2]|:z2|zB,B,,z F,E,,z2|zB,B,,z F,E,,z2|E,,E, E,,E, E,,E, E,,E,|D,,B,, D,,B,, E,E,,:|
[V:1]|:"qu in MS"B2|edcB [B2G2]GB|AGAF E/D/E/F/ EB|edcB B2 GB|AGAF"$"E2:|
[V:2]|:z2|CB,A,G,G,2z2|B,2B,,2E,2E,,2|CB,A,G,G,2z2|B,2B,,2"$"E,E,,:|

